X:84
T: A Nacht in Gan Eydn
T: A Night in the Garden of Eden
O:klezmer
B: Sapoznik "The Compleat Klezmer" p.38
D:
M: 2/4
L: 1/8
K: Dm
|: A,DE \
| "Dm"F2 ED | F2 ED | EF D2 | "C7"zCFG | "F"A2 GF | A2 GF | GA F2 | "(C7)"zCFA |
| "F"c2 "C7"B2 | "F"A2 GF | "A7"FG FE | "Dm"D3 "C7"C | "F"FG2F | "A7"(3AGF (3FED | "Dm"D4- | D :|
|: A \
| "Dm"Ad dd | dA f/e/d | "D7"^cd BA | "Gm"G3 G | ^FG AB | "A7"^cd cB | "Dm"A4- | A2 "C7"C2 |
| "F"CF FA | cc "D7"BA | "Gm"dG GG | GA/G/ "A7"FE | "Dm"D2 AF |1 "A7"GG FG | "Dm"A4 | ~d3 :|2 "Gm"GG "A7"FE | "Dm"D4- | D ||
|: ABA \
| "Dm"~d4 | "A7"zAFE | "Dm"D4 | "A7"ZABA | "Dm"f4- | (3fed "A7"(3^cde | "Dm"d4 | zc=Bc |
| "D"d_e dc | "F"=Bc _BA | =Bc _BA | "Gm"G3F | "Dm"FG2F | "A7"(3AGF (3FED | "Dm"D4- | D :|
%%sep 5 5 100
P:Bb instruments
K:Em
|: B,EF \
| "Em"G2 FE | G2 FE | FG E2 | "D7"zDGA | "G"B2 AG | B2 AG | AB G2 | "(D7)"zDGB |
| "G"d2 "D7"c2 | "G"B2 AG | "B7"GA GF | "Em"E3 "D7"D | "G"GA2G | "B7"(3BAG (3GFE | "Em"E4- | E :|
|: B \
| "Em"Be ee | eB g/f/e | "E7"^de cB | "Am"A3 A | ^GA Bc | "B7"^de dc | "Em"B4- | B2 "D7"D2 |
| "G"DG GB | dd "E7"cB | "Am"eA AA | AB/A/ "B7"GF | "Em"E2 BG |1 "B7"AA GA | "Em"B4 | ~e3 :|2 "Am"AA "B7"GF | "Em"E4- | E ||
|: BcB \
| "Em"~e4 | "B7"zBGF | "Em"E4 | "B7"ZBcB | "Em"g4- | (3gfe "B7"(3^def | "Em"e4 | zd^cd |
| "E"e_f ed | "G"^cd =cB | ^cd =cB | "Am"A3G | "Em"GA2G | "B7"(3BAG (3GFE | "Em"E4- | E :|





